X: 1
T: Private Ass And Cart
M: 4/4
L: 1/8
R: reel
K: Dmaj
|: F2 AF GE E2 | FADF ABAG | F2 AF GE E2 | ABGE FD D2 :|
| cdec d2 cB | AE E2 AE E2 | cdec d2 cB | ABGE FD D2 |
cdec d2 cB | AE E2 AEAB | cBcd efed | cAGE FD D2 ||
